public/assets/images/Sponsors/replit.svg

<svg width="290" height="69" viewBox="0 0 290 69" fill="none" xmlns="http://www.w3.org/2000/svg">
<path d="M104.663 19.6814L102.799 21.5459H100.934L100.354 19.1842C100.23 18.6041 99.6913 18.2312 99.0698 18.2312H87.1367C86.3909 18.2312 85.8108 18.8113 85.8108 19.4742V23.5762C85.8108 24.2806 86.3909 24.8193 87.1367 24.8193H94.1806V44.0449H85.9765C85.2307 44.0449 84.6506 44.625 84.6506 45.2879V49.3899C84.6506 50.0943 85.2307 50.633 85.9765 50.633H111.79C112.536 50.633 113.116 50.0529 113.116 49.3899V45.2879C113.116 44.5835 112.536 44.0449 111.79 44.0449H102.302V30.4544C102.302 26.6424 104.539 24.6535 108.931 24.6535H116.058C116.804 24.6535 117.384 24.0735 117.384 23.4105V18.8941C117.384 18.1898 116.804 17.6511 116.058 17.6511H111.832C108.724 17.6097 106.279 18.1898 104.663 19.6814Z" fill="#F5F9FC"/>
<path d="M136.858 17.6096C126.417 17.6096 120.823 23.1619 120.823 34.4321C120.823 45.7437 126.375 51.2959 136.651 51.2959C144.606 51.2959 149.744 47.9811 151.112 42.3046C151.319 41.5174 150.656 40.7715 149.827 40.7715H144.855C144.316 40.7715 143.819 41.103 143.612 41.6002C142.742 44.0449 140.256 45.205 136.9 45.205C131.679 45.205 129.193 42.346 128.861 35.6751H151.526C152.769 23.2033 147.59 17.6096 136.858 17.6096ZM129.11 30.6201C129.897 25.7308 132.342 23.4519 136.817 23.4519C141.582 23.4519 143.819 25.9794 143.943 30.6201H129.11Z" fill="#F5F9FC"/>
<path d="M177.174 17.6096C174.356 17.6096 172.326 18.2312 170.752 19.7228L168.804 21.5874H167.022L166.36 19.1842C166.194 18.6455 165.697 18.2312 165.075 18.2312H161.346C160.6 18.2312 160.02 18.8112 160.02 19.4742V61.9031C160.02 62.6075 160.6 63.1461 161.346 63.1461H166.815C167.561 63.1461 168.141 62.5661 168.141 61.9031V52.7047L167.437 47.774L169.26 47.3596L171.207 49.2242C172.74 50.6329 174.605 51.3373 177.381 51.3373C185.419 51.3373 190.267 45.7851 190.267 34.4735C190.226 23.1619 185.419 17.6096 177.174 17.6096ZM174.481 44.5421C170.379 44.5421 168.1 42.4289 168.1 38.4098V30.4543C168.1 26.4352 170.337 24.322 174.481 24.322C179.494 24.322 181.773 27.4711 181.773 34.3906C181.732 41.393 179.494 44.5421 174.481 44.5421Z" fill="#F5F9FC"/>
<path d="M290 23.5762V19.4742C290 18.7698 289.42 18.2312 288.674 18.2312H274.296V10.2757C274.296 9.57136 273.716 9.03271 272.97 9.03271H267.501C266.755 9.03271 266.175 9.6128 266.175 10.2757V18.2312H257.681C256.935 18.2312 256.355 18.8113 256.355 19.4742V23.5762C256.355 24.2806 256.935 24.8193 257.681 24.8193H266.175V37.001C266.175 46.3238 270.567 50.6329 280.014 50.6329H287.721C288.467 50.6329 289.047 50.0529 289.047 49.3899V45.2879C289.047 44.5835 288.467 44.0449 287.721 44.0449H281.257C276.119 44.0449 274.296 42.0146 274.296 36.9596V24.8607H288.674C289.42 24.8193 290 24.2392 290 23.5762Z" fill="#F5F9FC"/>
<path d="M222.172 44.0449H213.719V6.96099C213.719 6.2566 213.139 5.71796 212.393 5.71796H195.819C195.074 5.71796 194.493 6.29804 194.493 6.96099V11.063C194.493 11.7674 195.074 12.306 195.819 12.306H205.598V44.0449H194.618C193.872 44.0449 193.292 44.6249 193.292 45.2879V49.3899C193.292 50.0943 193.872 50.6329 194.618 50.6329H222.172C222.918 50.6329 223.498 50.0529 223.498 49.3899V45.2879C223.498 44.5835 222.918 44.0449 222.172 44.0449Z" fill="#F5F9FC"/>
<path d="M246.784 5.71796H239.326C238.58 5.71796 238 6.29804 238 6.96099V12.2232C238 12.9276 238.58 13.4662 239.326 13.4662H246.784C247.53 13.4662 248.11 12.8861 248.11 12.2232V6.96099C248.068 6.2566 247.488 5.71796 246.784 5.71796Z" fill="#F5F9FC"/>
<path d="M247.778 44.0449V19.4742C247.778 18.7698 247.198 18.2312 246.452 18.2312H229.754C229.008 18.2312 228.428 18.8113 228.428 19.4742V23.5762C228.428 24.2806 229.008 24.8193 229.754 24.8193H239.657V44.0449H229.754C229.008 44.0449 228.428 44.6249 228.428 45.2879V49.3899C228.428 50.0943 229.008 50.6329 229.754 50.6329H257.93C258.676 50.6329 259.256 50.0529 259.256 49.3899V45.2879C259.256 44.5835 258.676 44.0449 257.93 44.0449H247.778Z" fill="#F5F9FC"/>
<path d="M28.7141 22.9547H4.30919C1.90599 22.9547 0 21.0073 0 18.6455V4.30918C0 1.90598 1.94742 0 4.30919 0H24.4049C26.8081 0 28.7141 1.94742 28.7141 4.30918V22.9547Z" fill="#F5640C"/>
<path d="M53.119 45.9094H28.7141V22.9133H53.119C55.4808 22.9133 57.4282 24.8607 57.4282 27.2225V41.6002C57.4282 44.0034 55.4808 45.9094 53.119 45.9094Z" fill="#F5640C"/>
<path d="M24.4049 68.9056H4.30919C1.94742 68.9056 0 66.9581 0 64.5964V50.2186C0 47.8569 1.94742 45.9094 4.30919 45.9094H28.7141V64.5964C28.7141 66.9581 26.7667 68.9056 24.4049 68.9056Z" fill="#F5640C"/>
</svg>

<svg xmlns="http://www.w3.org/2000/svg" width="290" height="69" fill="none"><path fill="#F5F9FC" d="m104.663 19.681-1.864 1.865h-1.865l-.58-2.362c-.124-.58-.663-.953-1.284-.953H87.137c-.746 0-1.326.58-1.326 1.243v4.102c0 .705.58 1.243 1.326 1.243h7.044v19.226h-8.204c-.746 0-1.326.58-1.326 1.243v4.102c0 .704.58 1.243 1.326 1.243h25.813c.746 0 1.326-.58 1.326-1.243v-4.102c0-.704-.58-1.243-1.326-1.243h-9.488v-13.59c0-3.813 2.237-5.801 6.629-5.801h7.127c.746 0 1.326-.58 1.326-1.244v-4.516c0-.704-.58-1.243-1.326-1.243h-4.226c-3.108-.041-5.553.539-7.169 2.03M136.858 17.61c-10.441 0-16.035 5.552-16.035 16.822 0 11.312 5.552 16.864 15.828 16.864 7.955 0 13.093-3.315 14.461-8.991.207-.788-.456-1.533-1.285-1.533h-4.972c-.539 0-1.036.331-1.243.828-.87 2.445-3.356 3.605-6.712 3.605-5.221 0-7.707-2.859-8.039-9.53h22.665c1.243-12.472-3.936-18.065-14.668-18.065m-7.748 13.01c.787-4.89 3.232-7.168 7.707-7.168 4.765 0 7.002 2.527 7.126 7.168zM177.174 17.61c-2.818 0-4.848.621-6.422 2.113l-1.948 1.864h-1.782l-.662-2.403a1.34 1.34 0 0 0-1.285-.953h-3.729c-.746 0-1.326.58-1.326 1.243v42.43c0 .703.58 1.242 1.326 1.242h5.469c.746 0 1.326-.58 1.326-1.243v-9.198l-.704-4.931 1.823-.414 1.947 1.864c1.533 1.409 3.398 2.113 6.174 2.113 8.038 0 12.886-5.552 12.886-16.864-.041-11.311-4.848-16.863-13.093-16.863m-2.693 26.932c-4.102 0-6.381-2.113-6.381-6.132v-7.956c0-4.019 2.237-6.132 6.381-6.132 5.013 0 7.292 3.15 7.292 10.069-.041 7.002-2.279 10.151-7.292 10.151M290 23.576v-4.102c0-.704-.58-1.243-1.326-1.243h-14.378v-7.955c0-.705-.58-1.243-1.326-1.243h-5.469c-.746 0-1.326.58-1.326 1.243v7.955h-8.494c-.746 0-1.326.58-1.326 1.243v4.102c0 .705.58 1.243 1.326 1.243h8.494v12.182c0 9.323 4.392 13.632 13.839 13.632h7.707c.746 0 1.326-.58 1.326-1.243v-4.102c0-.704-.58-1.243-1.326-1.243h-6.464c-5.138 0-6.961-2.03-6.961-7.085v-12.1h14.378c.746-.04 1.326-.62 1.326-1.284M222.172 44.045h-8.453V6.96c0-.704-.58-1.243-1.326-1.243h-16.574c-.745 0-1.326.58-1.326 1.243v4.102c0 .704.581 1.243 1.326 1.243h9.779v31.739h-10.98c-.746 0-1.326.58-1.326 1.243v4.102c0 .704.58 1.243 1.326 1.243h27.554c.746 0 1.326-.58 1.326-1.243v-4.102c0-.704-.58-1.243-1.326-1.243M246.784 5.718h-7.458c-.746 0-1.326.58-1.326 1.243v5.262c0 .705.58 1.243 1.326 1.243h7.458c.746 0 1.326-.58 1.326-1.243V6.961a1.32 1.32 0 0 0-1.326-1.243M247.778 44.045v-24.57c0-.705-.58-1.244-1.326-1.244h-16.698c-.746 0-1.326.58-1.326 1.243v4.102c0 .705.58 1.243 1.326 1.243h9.903v19.226h-9.903c-.746 0-1.326.58-1.326 1.243v4.102c0 .704.58 1.243 1.326 1.243h28.176c.746 0 1.326-.58 1.326-1.243v-4.102c0-.704-.58-1.243-1.326-1.243z"/><path fill="#F5640C" d="M28.714 22.955H4.31A4.306 4.306 0 0 1 0 18.645V4.31A4.306 4.306 0 0 1 4.31 0h20.095a4.306 4.306 0 0 1 4.31 4.31z"/><path fill="#F5640C" d="M53.119 45.91H28.714V22.912H53.12c2.362 0 4.31 1.948 4.31 4.31V41.6a4.306 4.306 0 0 1-4.31 4.31M24.405 68.906H4.309C1.947 68.906 0 66.958 0 64.596V50.22c0-2.362 1.947-4.31 4.31-4.31h24.404v18.687c0 2.362-1.947 4.31-4.31 4.31"/></svg>
